src/assets/images/kolektivo-logo.svg

<svg fill="none" height="160" viewBox="0 0 224 160" width="224" xmlns="http://www.w3.org/2000/svg" xmlns:xlink="http://www.w3.org/1999/xlink"><clipPath id="a"><path d="m32 55h159.8v49.9375h-159.8z"/></clipPath><rect fill="#fff" height="160" rx="16" width="224"/><g clip-path="url(#a)"><g fill="#594f4f"><path d="m94.4347 86.1405v-16.0824h3.0219v9.8595l4.9684-6.1974h3.79l-5.096 6.1974 5.121 6.2229h-3.79l-4.9934-6.2229v6.2229z"/><path d="m116.791 79.9174c0-1.0499-.358-1.9462-1.101-2.6889s-1.613-1.1268-2.663-1.1268-1.921.3841-2.664 1.1268c-.742.7427-1.101 1.639-1.101 2.6889 0 1.0756.359 1.9719 1.101 2.7402.743.7427 1.614 1.1268 2.664 1.1268 1.075 0 1.946-.3841 2.663-1.1268.743-.7683 1.101-1.6646 1.101-2.7402zm3.15 0c0 1.8695-.691 3.4316-2.048 4.6865-1.383 1.2548-2.997 1.8951-4.866 1.8951-1.844 0-3.483-.6403-4.866-1.8951-1.383-1.2805-2.074-2.8426-2.074-4.6865 0-1.8438.691-3.4059 2.049-4.6608 1.382-1.2804 2.996-1.9207 4.865-1.9207 1.87 0 3.483.6403 4.866 1.9207 1.383 1.2805 2.074 2.817 2.074 4.6608z"/><path d="m121.76 86.1403v-16.8507h3.021v16.8507z"/><path d="m139.967 79.9172c0 .4098-.051.8707-.179 1.3829h-9.962c.205.7427.666 1.3573 1.332 1.8439.666.4865 1.383.717 2.151.717.692 0 1.383-.1793 1.998-.5122.64-.3329 1.126-.7682 1.459-1.306l2.049 1.8182c-.64.8195-1.434 1.4597-2.382 1.9463-.973.461-1.997.6914-3.124.6914-1.869 0-3.483-.6402-4.763-1.895-1.306-1.2805-1.946-2.8426-1.946-4.6865 0-1.8694.665-3.4316 1.946-4.6608 1.332-1.2548 2.894-1.8951 4.763-1.8951 1.818 0 3.406.6403 4.687 1.9207 1.357 1.2804 1.971 2.7914 1.971 4.6352zm-10.064-1.2036h6.863c-.179-.7939-.589-1.4597-1.229-1.9719s-1.357-.7683-2.177-.7683c-.819 0-1.536.2561-2.202.7939-.64.4866-1.076 1.1524-1.255 1.9463z"/><path d="m141.811 86.1403v-16.8507h3.022v10.6277l4.968-6.1974h3.79l-5.096 6.1974 5.122 6.223h-3.79l-4.994-6.223v6.223z"/><path d="m154.104 76.2297v-2.5097h1.152v-2.8938h2.996v2.9194h2.1v2.5097h-2.1v6.6327c0 .2561.103.4866.308.6658.204.1793.461.2817.717.2817.358 0 .614-.0512.794-.1792l.589 2.4072c-.615.3073-1.358.461-2.228.461-.948 0-1.716-.3073-2.305-.9219-.589-.6147-.897-1.4085-.897-2.3817v-6.9912z"/><path d="m161.94 73.72h3.022v12.4204h-3.022zm.256-1.4597c-.358-.3585-.538-.7683-.538-1.2804 0-.4866.18-.922.538-1.2805.359-.3585.794-.5378 1.281-.5378.512 0 .921.1793 1.28.5378s.538.7683.538 1.2805c0 .4865-.179.9219-.538 1.2804s-.768.5378-1.28.5378c-.513 0-.922-.1793-1.281-.5378z"/><path d="m188.548 79.9174c0-1.0499-.359-1.9462-1.101-2.6889-.743-.7427-1.614-1.1268-2.664-1.1268s-1.92.3841-2.663 1.1268-1.101 1.639-1.101 2.6889c0 1.0756.358 1.9719 1.101 2.7402.743.7427 1.613 1.1268 2.663 1.1268 1.076 0 1.947-.3841 2.664-1.1268.742-.7683 1.101-1.6646 1.101-2.7402zm3.124 0c0 1.8695-.691 3.4316-2.049 4.6865-1.383 1.2548-2.996 1.8951-4.865 1.8951-1.844 0-3.483-.6403-4.866-1.8951-1.383-1.2805-2.074-2.8426-2.074-4.6865 0-1.8438.691-3.4059 2.048-4.6608 1.383-1.2804 2.997-1.9207 4.866-1.9207 1.87 0 3.483.6403 4.866 1.9207 1.408 1.2805 2.074 2.817 2.074 4.6608z"/><path d="m175.103 73.72-2.945 6.351h-.077l-2.945-6.351h-3.099l6.07 12.5996 6.12-12.5996z"/></g><path d="m69.799 80.1994 9.9875 9.9875c-.5122 1.1268-1.1012 2.228-1.767 3.2779l-13.2655-13.2654 13.4191-13.4191c.6403 1.0499 1.2293 2.1511 1.7414 3.3291z" fill="#63e495"/><path d="m56.175 101.865 2.9707 2.97c1.4597-.128 2.9194-.384 4.2767-.742l-7.2474-7.2478z" fill="#5b4f4f"/><path d="m56.175 73.6435 14.4947-14.4947c-1.0243-.6914-2.0743-1.3061-3.2267-1.8182l-11.268 11.2935z" fill="#497a81"/><path d="m56.175 63.5791 7.6315-7.6571c-1.3573-.3841-2.7657-.6914-4.1998-.8195l-3.4317 3.4316z" fill="#5b4f4f"/><path d="m56.175 91.8001 10.9863 10.9859c1.1268-.512 2.228-1.126 3.2523-1.767l-14.2386-14.2382z" fill="#497a81"/><path d="m76.0476 63.8863c-.7939-.9219-1.6134-1.767-2.5097-2.5609l-17.3629 17.3373v3.0731l17.1068 17.1068c.922-.7939 1.7415-1.639 2.5353-2.5353l-16.108-16.108z" fill="#00b0a9"/><path d="m56.175 55c-1.2036.0256-2.3816.1793-3.5596.3841v49.1949c1.1524.205 2.356.333 3.5596.384v-3.073-5.0193-5.0194-5.0193-5.0194-3.0731-5.0962-5.0193-5.045-5.045z" fill="#db5a3f"/><path d="m79.8634 80.1992 1.9718 1.9719c-.128 1.4597-.3841 2.9194-.7426 4.2767l-6.2486-6.2486 6.351-6.3511c.3329 1.4085.589 2.8426.6915 4.3536z" fill="#a7ead3"/><path d="m35.2267 67.7275v24.4822c-2.0743-3.6108-3.2267-7.7851-3.2267-12.2411 0-4.4559 1.1524-8.6302 3.2267-12.2411z" fill="#ffbc7c"/><path d="m42.3717 59.7122v40.4878c-1.3061-.922-2.4585-1.9719-3.5597-3.1243v-34.2392c1.1012-1.1268 2.2792-2.2024 3.5597-3.1243z" fill="#faa050"/><path d="m49.2606 56.2036v47.5044c-1.2293-.409-2.4329-.896-3.5597-1.459v-44.5601c1.178-.5634 2.3304-1.0755 3.5597-1.4853z" fill="#f37c56"/></g></svg>

<svg width="224" height="160" viewBox="0 0 224 160" fill="none" xmlns="http://www.w3.org/2000/svg">
<rect width="224" height="160" rx="16" fill="white"/>
<g clip-path="url(#clip0_1077_10038)">
<path d="M94.4347 86.1405V70.0581H97.4566V79.9176L102.425 73.7202H106.215L101.119 79.9176L106.24 86.1405H102.45L97.4566 79.9176V86.1405H94.4347Z" fill="#594F4F"/>
<path d="M116.791 79.9174C116.791 78.8675 116.433 77.9712 115.69 77.2285C114.947 76.4858 114.077 76.1017 113.027 76.1017C111.977 76.1017 111.106 76.4858 110.363 77.2285C109.621 77.9712 109.262 78.8675 109.262 79.9174C109.262 80.993 109.621 81.8893 110.363 82.6576C111.106 83.4003 111.977 83.7844 113.027 83.7844C114.102 83.7844 114.973 83.4003 115.69 82.6576C116.433 81.8893 116.791 80.993 116.791 79.9174ZM119.941 79.9174C119.941 81.7869 119.25 83.349 117.893 84.6039C116.51 85.8587 114.896 86.499 113.027 86.499C111.183 86.499 109.544 85.8587 108.161 84.6039C106.778 83.3234 106.087 81.7613 106.087 79.9174C106.087 78.0736 106.778 76.5115 108.136 75.2566C109.518 73.9762 111.132 73.3359 113.001 73.3359C114.871 73.3359 116.484 73.9762 117.867 75.2566C119.25 76.5371 119.941 78.0736 119.941 79.9174Z" fill="#594F4F"/>
<path d="M121.76 86.1403V69.2896H124.781V86.1403H121.76Z" fill="#594F4F"/>
<path d="M139.967 79.9172C139.967 80.327 139.916 80.7879 139.788 81.3001H129.826C130.031 82.0428 130.492 82.6574 131.158 83.144C131.824 83.6305 132.541 83.861 133.309 83.861C134.001 83.861 134.692 83.6817 135.307 83.3488C135.947 83.0159 136.433 82.5806 136.766 82.0428L138.815 83.861C138.175 84.6805 137.381 85.3207 136.433 85.8073C135.46 86.2683 134.436 86.4987 133.309 86.4987C131.44 86.4987 129.826 85.8585 128.546 84.6037C127.24 83.3232 126.6 81.7611 126.6 79.9172C126.6 78.0478 127.265 76.4856 128.546 75.2564C129.878 74.0016 131.44 73.3613 133.309 73.3613C135.127 73.3613 136.715 74.0016 137.996 75.282C139.353 76.5624 139.967 78.0734 139.967 79.9172ZM129.903 78.7136H136.766C136.587 77.9197 136.177 77.2539 135.537 76.7417C134.897 76.2295 134.18 75.9734 133.36 75.9734C132.541 75.9734 131.824 76.2295 131.158 76.7673C130.518 77.2539 130.082 77.9197 129.903 78.7136Z" fill="#594F4F"/>
<path d="M141.811 86.1403V69.2896H144.833V79.9173L149.801 73.7199H153.591L148.495 79.9173L153.617 86.1403H149.827L144.833 79.9173V86.1403H141.811Z" fill="#594F4F"/>
<path d="M154.104 76.2297V73.72H155.256V70.8262H158.252V73.7456H160.352V76.2553H158.252V82.888C158.252 83.1441 158.355 83.3746 158.56 83.5538C158.764 83.7331 159.021 83.8355 159.277 83.8355C159.635 83.8355 159.891 83.7843 160.071 83.6563L160.66 86.0635C160.045 86.3708 159.302 86.5245 158.432 86.5245C157.484 86.5245 156.716 86.2172 156.127 85.6026C155.538 84.9879 155.23 84.1941 155.23 83.2209V76.2297H154.104Z" fill="#594F4F"/>
<path d="M161.94 73.72H164.962V86.1404H161.94V73.72ZM162.196 72.2603C161.838 71.9018 161.658 71.492 161.658 70.9799C161.658 70.4933 161.838 70.0579 162.196 69.6994C162.555 69.3409 162.99 69.1616 163.477 69.1616C163.989 69.1616 164.398 69.3409 164.757 69.6994C165.116 70.0579 165.295 70.4677 165.295 70.9799C165.295 71.4664 165.116 71.9018 164.757 72.2603C164.398 72.6188 163.989 72.7981 163.477 72.7981C162.964 72.7981 162.555 72.6188 162.196 72.2603Z" fill="#594F4F"/>
<path d="M188.548 79.9174C188.548 78.8675 188.189 77.9712 187.447 77.2285C186.704 76.4858 185.833 76.1017 184.783 76.1017C183.733 76.1017 182.863 76.4858 182.12 77.2285C181.377 77.9712 181.019 78.8675 181.019 79.9174C181.019 80.993 181.377 81.8893 182.12 82.6576C182.863 83.4003 183.733 83.7844 184.783 83.7844C185.859 83.7844 186.73 83.4003 187.447 82.6576C188.189 81.8893 188.548 80.993 188.548 79.9174ZM191.672 79.9174C191.672 81.7869 190.981 83.349 189.623 84.6039C188.24 85.8587 186.627 86.499 184.758 86.499C182.914 86.499 181.275 85.8587 179.892 84.6039C178.509 83.3234 177.818 81.7613 177.818 79.9174C177.818 78.0736 178.509 76.5115 179.866 75.2566C181.249 73.9762 182.863 73.3359 184.732 73.3359C186.602 73.3359 188.215 73.9762 189.598 75.2566C191.006 76.5371 191.672 78.0736 191.672 79.9174Z" fill="#594F4F"/>
<path d="M175.103 73.72L172.158 80.071H172.081L169.136 73.72H166.037L172.107 86.3196L178.227 73.72H175.103Z" fill="#594F4F"/>
<path d="M69.799 80.1994L79.7865 90.1869C79.2743 91.3137 78.6853 92.4149 78.0195 93.4648L64.754 80.1994L78.1731 66.7803C78.8134 67.8302 79.4024 68.9314 79.9145 70.1094L69.799 80.1994Z" fill="#63E495"/>
<path d="M56.175 101.865L59.1457 104.835C60.6054 104.707 62.0651 104.451 63.4224 104.093L56.175 96.8452V101.865Z" fill="#5B4F4F"/>
<path d="M56.175 73.6435L70.6697 59.1488C69.6454 58.4574 68.5954 57.8427 67.443 57.3306L56.175 68.6241V73.6435Z" fill="#497A81"/>
<path d="M56.175 63.5791L63.8065 55.922C62.4492 55.5379 61.0408 55.2306 59.6067 55.1025L56.175 58.5341V63.5791Z" fill="#5B4F4F"/>
<path d="M56.175 91.8001L67.1613 102.786C68.2881 102.274 69.3893 101.66 70.4136 101.019L56.175 86.7808V91.8001Z" fill="#497A81"/>
<path d="M76.0476 63.8863C75.2537 62.9644 74.4342 62.1193 73.5379 61.3254L56.175 78.6627V81.7358L73.2818 98.8426C74.2038 98.0487 75.0233 97.2036 75.8171 96.3073L59.7091 80.1993L76.0476 63.8863Z" fill="#00B0A9"/>
<path d="M56.175 55C54.9714 55.0256 53.7934 55.1793 52.6154 55.3841V104.579C53.7678 104.784 54.9714 104.912 56.175 104.963V101.89V96.8707V91.8513V86.832V81.8126V78.7395V73.6433V68.624V63.579V58.534V55Z" fill="#DB5A3F"/>
<path d="M79.8634 80.1992L81.8352 82.1711C81.7072 83.6308 81.4511 85.0905 81.0926 86.4478L74.844 80.1992L81.195 73.8481C81.5279 75.2566 81.784 76.6907 81.8865 78.2017L79.8634 80.1992Z" fill="#A7EAD3"/>
<path d="M35.2267 67.7275V92.2097C33.1524 88.5989 32 84.4246 32 79.9686C32 75.5127 33.1524 71.3384 35.2267 67.7275Z" fill="#FFBC7C"/>
<path d="M42.3717 59.7122V100.2C41.0656 99.278 39.9132 98.2281 38.812 97.0757V62.8365C39.9132 61.7097 41.0912 60.6341 42.3717 59.7122Z" fill="#FAA050"/>
<path d="M49.2606 56.2036V103.708C48.0313 103.299 46.8277 102.812 45.7009 102.249V57.6889C46.8789 57.1255 48.0313 56.6134 49.2606 56.2036Z" fill="#F37C56"/>
</g>
<defs>
<clipPath id="clip0_1077_10038">
<rect width="159.8" height="49.9375" fill="white" transform="translate(32 55)"/>
</clipPath>
</defs>
</svg>
